insidebox (1)/img/bell.svg

<svg width="27" height="27" viewBox="0 0 27 27" fill="none" xmlns="http://www.w3.org/2000/svg">
<path d="M16.7141 19.2173C18.8102 18.9691 20.8697 18.4744 22.8499 17.7435C21.1729 15.8859 20.2463 13.4713 20.25 10.9688V10.125C20.25 8.33479 19.5388 6.6179 18.273 5.35203C17.0071 4.08616 15.2902 3.375 13.5 3.375C11.7098 3.375 9.9929 4.08616 8.72703 5.35203C7.46116 6.6179 6.75 8.33479 6.75 10.125V10.9688C6.7534 13.4715 5.82636 15.8861 4.149 17.7435C6.09863 18.4635 8.154 18.9641 10.2859 19.2173M16.7141 19.2173C14.5789 19.4705 12.4211 19.4705 10.2859 19.2173M16.7141 19.2173C16.8762 19.7233 16.9166 20.2606 16.8318 20.7852C16.747 21.3098 16.5396 21.807 16.2263 22.2363C15.913 22.6656 15.5028 23.0148 15.0291 23.2556C14.5553 23.4963 14.0314 23.6218 13.5 23.6218C12.9686 23.6218 12.4447 23.4963 11.9709 23.2556C11.4972 23.0148 11.087 22.6656 10.7737 22.2363C10.4604 21.807 10.253 21.3098 10.1682 20.7852C10.0834 20.2606 10.1238 19.7233 10.2859 19.2173" stroke="#666F74" stroke-width="1.5" stroke-linecap="round" stroke-linejoin="round"/>
</svg>

<svg fill="none" xmlns="http://www.w3.org/2000/svg" viewBox="0 0 27 27">
    <path d="M16.71 19.22q3.16-.38 6.14-1.48a10 10 0 0 1-2.6-6.77v-.85a6.75 6.75 0 0 0-13.5 0v.85c0 2.5-.92 4.92-2.6 6.77q2.93 1.09 6.14 1.48m6.42 0q-3.21.38-6.42 0m6.42 0a3.37 3.37 0 1 1-6.42 0" stroke="#666f74" stroke-width="1.5" stroke-linecap="round" stroke-linejoin="round"/>
</svg>
